docs/.gitbook/assets/icon-speech-bubble-active-16@dark.svg

<svg width="32" height="32" viewBox="0 0 16 16" fill="none" xmlns="http://www.w3.org/2000/svg">
<rect x="0" y="0" width="16" height="16" fill="#181c1f"/>
<path fill-rule="evenodd" clip-rule="evenodd" d="M2.5 5.75C2.5 3.95507 3.95507 2.5 5.75 2.5H10.25C12.0449 2.5 13.5 3.95507 13.5 5.75V8.25C13.5 10.0449 12.0449 11.5 10.25 11.5H7.69118C7.54076 11.5 7.39382 11.5452 7.26944 11.6298L5.5 12.833V12.124C5.5 11.7818 5.26836 11.483 4.93694 11.3977C3.53504 11.0368 2.5 9.76334 2.5 8.25V5.75ZM5.75 1C3.12665 1 1 3.12665 1 5.75V8.25C1 10.2561 2.24301 11.9703 4 12.667V14.25C4 14.5278 4.15359 14.7829 4.39914 14.9129C4.6447 15.0428 4.94199 15.0264 5.17173 14.8702L7.92202 13H10.25C12.8734 13 15 10.8734 15 8.25V5.75C15 3.12665 12.8734 1 10.25 1H5.75ZM4 7C4 6.44772 4.44772 6 5 6C5.55228 6 6 6.44772 6 7C6 7.55228 5.55228 8 5 8C4.44772 8 4 7.55228 4 7ZM7 7C7 6.44772 7.44772 6 8 6C8.55228 6 9 6.44772 9 7C9 7.55228 8.55228 8 8 8C7.44772 8 7 7.55228 7 7ZM11 6C10.4477 6 10 6.44772 10 7C10 7.55228 10.4477 8 11 8C11.5523 8 12 7.55228 12 7C12 6.44772 11.5523 6 11 6Z" fill="#fff"/>
</svg>

<svg xmlns="http://www.w3.org/2000/svg" width="32" height="32" fill="none" viewBox="0 0 16 16"><path fill="#181c1f" d="M0 0h16v16H0z"/><path fill="#fff" fill-rule="evenodd" d="M2.5 5.75A3.25 3.25 0 0 1 5.75 2.5h4.5a3.25 3.25 0 0 1 3.25 3.25v2.5a3.25 3.25 0 0 1-3.25 3.25H7.691a.75.75 0 0 0-.422.13L5.5 12.833v-.709a.75.75 0 0 0-.563-.726A3.25 3.25 0 0 1 2.5 8.25zM5.75 1A4.75 4.75 0 0 0 1 5.75v2.5a4.75 4.75 0 0 0 3 4.417v1.583a.75.75 0 0 0 1.172.62L7.922 13h2.328A4.75 4.75 0 0 0 15 8.25v-2.5A4.75 4.75 0 0 0 10.25 1zM4 7a1 1 0 1 1 2 0 1 1 0 0 1-2 0m3 0a1 1 0 1 1 2 0 1 1 0 0 1-2 0m4-1a1 1 0 1 0 0 2 1 1 0 0 0 0-2" clip-rule="evenodd"/></svg>
